X:41
T:Adonis ab apro occiditur, cui Venus accurrens tinxit Rosas sanguine
T:Adonis is slain by a boar, and as Venus comes running she colours the Roses with her blood
T:Fuga XLI
Z:Jack Campin <http://www.campin.me.uk/> version 1.3 Jan 2007
S:Michael Maier, Atalanta Fugiens (1618)
B:NLS H3.91.708 (Joscelyn Godwin's edition)
V:1 program 1 12               % Hippomenes
V:2 program 1 12               % Atalanta
V:3 program 1 14 transpose -12 % Golden Apple (cancrizans)
M:2/1
L:1/4
Q:1/2=120
K:D minor
[V:1] z2 G2 ^FGAG/F/|G2z2    z2A2|GABA/G/ ABc2   |z2F2 EFGF/E/|FGA2    z2BA/G/|
[V:2] z4     z2E2   |DEFE/D/ E2z2|z2F2    EFGF/E/|FGA2 z2D2   |CDED/C/ DEF2   |
[V:3] G4     A2A2   |B4      A2A2|B4      c4     |A4   G4     |A4      d2d2   |
%
[V:1] A2Bc    d4  |z2BA/G/ A2z2   |z2B2 ABcB/A/|Bc/d/cB z2   cd/e/|fdfg    f4  |f8|]
[V:2] z2GF/E/ F2GA|B4      z2GF/E/|F2z4   G2   |FGAG/F/ GA/B/AG   |z2AB/c/ d4  |d8|]
[V:3] c2c2    B4  |d2d2    c4     |B2B2 c4     |d4      c2   c2   |d4      d2d2|d8|]
